X:1
T: Calton Hill
C:
R:Strathspey
Q: 128
K:Bb
M:4/4
L:1/16
|:B2|F3B cdBA B4 F3B|G3c edc=B cG3 G3A|B3d c3d Bcde f3b|ge3 c3A B6B2|
F3B cdBA B4 F3B|G3c edc=B cG3 G3A|B3d c3d Bcde f3b|ge3 c3A B6d2|
g3B gfed fB3 B3d|ec3 g3c a3c g3b|fB3 d3b bagf edcB|ge3 c3A B6d2|
g3B gfed fB3 B3d|ec3 g3c a3c g3b|fB3 d3b bagf edcB|ge3 c3A B6:|
